X:1
T:Title
%%score { ( 1 3 4 ) | ( 2 5 ) }
L:1/8
M:12/8
K:A
V:1 treble nm="Grand Piano"
V:3 treble 
V:4 treble 
V:2 bass 
V:5 bass 
V:1
 z6 z2[Q:1/4=105] E EAB | c6- c z z z3 | E6- E2 z z3 | G6- G z z z3 | A6- A2 z z3 | c6- c z z z3 | %6
[M:9/8] E8- E |[M:3/8] [CEA]3 |[M:6/4] [B,G]6- [B,G][^DF][DG][DA][DG][DF] |[M:9/8] E3 d3 c3 | %10
[M:3/8] E3 |[M:6/4] c3- [Ec-]3 [Ec][EG][EA][FB][FA][DF] | E-[CE-][CE-][DE-][DE-][DE-] [CE]3 [CA]3 | %13
 .B12 | c12 | .c12 | E12 | B2 A G2 F E3 B3 |[M:5/8] [CA]-[CA]- [CA]3 |] %19
V:2
 z12 | z2 [A,,A,] [A,,A,][A,,A,][A,,A,] .[A,,A,]3 z3 | %2
 z [A,,A,][A,,A,] [A,,F,][A,,G,][A,,A,] .[A,,E,]3 z3 | z2 [E,B,] [E,B,][E,B,][E,B,] .[E,B,]3 z3 | %4
 z [A,,A,][A,,A,] [A,,F,][A,,F,][A,,F,] .[A,,E,]3 z3 | %5
 z2 [A,,A,] [A,,A,][A,,A,][A,,A,] .[A,,A,]3 z3 | %6
[M:9/8] z [A,,A,][A,,A,] [A,,F,][A,,G,][A,,A,] [A,,E,]3 |[M:3/8] A,,3 | %8
[M:6/4] z6 ^D[B,,B,][B,,B,][B,,B,][B,,B,][B,,A,] |[M:9/8] [E,G,]3 [E,G,E]3 [E,A,E]3 | %10
[M:3/8] [E,B,D]3 |[M:6/4] [A,,A,]3 [A,,A,]3 [C,A,][C,A,][C,A,][D,A,][D,A,][D,A,] | %12
 [A,,A,][A,,A,][A,,A,][A,,F,][A,,G,][A,,A,] [A,,E,]3 [A,,E,]3 | %13
 [E,G,D]3 [E,G,]3 [E,G,][E,G,D][E,G,D][E,B,D][E,A,D][E,G,D] | %14
 [A,,A,][A,,A,][A,,A,][A,,A,][A,,A,][A,,A,] [A,,A,]3 [A,,A,]3 | %15
 [A,,A,]3 [A,,A,]3 [C,A,][C,A,][C,A,][D,A,][D,A,][D,A,] | %16
 [A,,A,][A,,A,][A,,A,][A,,F,][A,,G,][B,,A,] [A,,E,]3 [A,,E,]3 | %17
 [D,F,D]2 [D,F,D] [D,A,E]2 [D,A,D] [E,A,C]3 [E,G,D]3 |[M:5/8] [A,,A,]-[A,,A,]- [A,,A,]3 |] %19
V:3
 x12 | z2 E EEE z GA BAF | z CC DDD z2 E ECA | z2 D DDD z FE EFG | z CC DDD .C2 E EAB | %5
 z2 E EEE z GA BAF |[M:9/8] z CC DDD C3 |[M:3/8] x3 |[M:6/4] E6 z6 |[M:9/8] x9 |[M:3/8] x3 | %11
[M:6/4] .C6 z6 | .C6 z6 | z2 z D3 DEFGAB | CDEFGA E3 [CE]3 | E3 E3 E[EG][EA][FB][FA][DF] | %16
 CCCDDD C3 [CA]3 | x12 |[M:5/8] x5 |] %19
V:4
 x12 | z6 .E3 z3 | z6 C3 z3 | z6 .D3 z3 | x12 | z6 .E3 z3 |[M:9/8] x9 |[M:3/8] x3 |[M:6/4] x12 | %9
[M:9/8] x9 |[M:3/8] x3 |[M:6/4] x12 | x12 | x12 | x12 | x12 | x12 | x12 |[M:5/8] x5 |] %19
V:5
 x12 | x12 | x12 | x12 | x12 | x12 |[M:9/8] x9 |[M:3/8] x3 |[M:6/4] .B,,12 |[M:9/8] x9 | %10
[M:3/8] x3 |[M:6/4] x12 | x12 | x12 | x12 | x12 | x12 | x12 |[M:5/8] x5 |] %19

